!!!COM:	Josquin des Pres
**kern	**kern
*part2	*part1
*staff2	*staff1
*clefGv2	*clefG2
*k[b-]	*k[b-]
*M2/1	*M2/1
=1-	=1-
[0g	1dd
.	2ee
.	[2dd
=2	=2
0g]	4dd]
.	4cc
.	4dd
.	4b-
.	2ee
.	[2dd
=3	=3
1.f	2dd]
.	4cc
.	4b-
.	1a
2g	.
=4	=4
1a	[0d
2b-	.
[2a	.
=5	=5
4a]	0d]
4g	.
4a	.
4f	.
2b-	.
[2a	.
=6	=6
2a]	0c
4g	.
4f	.
1e	.
=7	=7
[0d	1a
.	2b-
.	[2a
=8	=8
0d]	4a]
.	4g
.	4a
.	4f
.	2b-
.	[2a
=9	=9
0c	2a]
.	4g
.	4f
.	2e
.	[2a
=10	=10
1d	2a]
.	2b-
2e	2g
[2d	2b-
=11	=11
4d]	2a
4c	.
4d	2b-
4B-	.
2e	2g
[2d	[2b-
=12	=12
2d]	2b-]
4c	4a
4B-	4g
1A	2f
.	[2cc
=13	=13
2r	4cc]
.	4b-
2a	2cc
2b-	2dd
[2a	2ff
=14	=14
4a]	2ee
4g	.
4a	2ff
4f	.
2b-	2dd
[2a	[2ff
=15	=15
2a]	2ff]
4g	4ee
4f	4dd
1e	4cc
.	4dd
.	4ee
.	4cc
=16	=16
0d	0dd
==	==
*-	*-
